X:1
T:Fairfield, SMD
T:Peter La Trobe (1795-1863)
T:Fairfield, SMD
T:Public Domain
C:Peter La Trobe (1795-1863)
Z:Public Domain
%%score ( 1 2 ) ( 3 4 )
L:1/8
M:4/4
K:E
V:1 treble 
V:2 treble 
V:3 bass 
V:4 bass 
V:1
 E2 | [EB]2 [Ge]2 [Fd]2 [Dc]2 | [EB]6 (B,C) | [DA]2 [EG]2 [EF]2 (GA) | [EG]6 E2 | %5
 [EG]2 [E^A]2 [DB]2 [DB]2 | [Gc]2 [Fd]2 [Ee]2 [Ee]2 | [Ee]2 [Fd]2 d2 z E x | [DB]6 [DB]2 | %9
 [FA]2 [^EG]2 [Fc]2 [EB]2 | [FA]6 [CA]2 | [DA]2 [EG]2 [B,F]2 E2 | [DB]6 [DB]2 | %13
 [Ec]2 [Fd]2 [Ee]2 [EG]2 | [EA]2 [GB]2 [Ac]2 [Dc]2 | [EB]2 (EF) [EG]2 [DF]2 | E6 |] %17
V:2
 E2 | x8 | x6 B2 | x6 D2 | x6 E2 | x8 | x8 | x4 F3 c2 | x8 | x8 | x8 | x6 E2 | x8 | x8 | x8 | x8 | %16
 E6 |] %17
V:3
 [E,G,]2 | [G,B,]2 [E,G,]2 [F,A,]2 [F,A,]2 | [G,B,]6 [G,B,]2 | [F,B,]2 [E,B,]2 [A,,C]2 [B,,B,]2 | %4
 [E,B,]6 [E,G,]2 | [E,B,]2 [C,C]2 [G,B,]2 [G,B,]2 | [E,G,]2 [D,G,]2 [C,G,]2 (CB,) | %7
 [C,^A,]2 (D,E,) [F,B,]2 [F,A,]2 x | [B,,B,]6 [G,B,]2 | C2 [B,C]2 [A,C]2 [G,C]2 | [F,C]6 [F,A,]2 | %11
 [F,B,]2 [E,B,]2 [D,B,]2 [C,^A,]2 | [B,,B,]6 [B,,B,]2 | B,2 [A,B,]2 [G,B,]2 (E,=D,) | %14
 [C,A,]2 [B,,=D]2 [A,,C]2 [A,,F,]2 | [G,,G,]2 [A,,C]2 [B,,B,]2 [B,,A,]2 | [E,G,]6 |] %17
V:4
 x2 | x8 | x8 | x8 | x8 | x8 | x6 C,2 | x2 B,2 x5 | x8 | C2 x6 | x8 | x8 | x8 | B,2 x2 B,2 x2 | %14
 x8 | x8 | x6 |] %17

